actions/16/mail-reply-all.svg

<?xml version="1.0" encoding="UTF-8" standalone="no"?>
<svg
   xmlns:osb="http://www.openswatchbook.org/uri/2009/osb"
   xmlns:dc="http://purl.org/dc/elements/1.1/"
   xmlns:cc="http://creativecommons.org/ns#"
   xmlns:rdf="http://www.w3.org/1999/02/22-rdf-syntax-ns#"
   xmlns:svg="http://www.w3.org/2000/svg"
   xmlns="http://www.w3.org/2000/svg"
   xmlns:xlink="http://www.w3.org/1999/xlink"
   version="1.1"
   width="16"
   height="16"
   id="svg3842">
  <defs
     id="defs3844">
    <linearGradient
       x1="38.940514"
       y1="15.991243"
       x2="20.576487"
       y2="15.991243"
       id="linearGradient3842"
       xlink:href="#linearGradient4087-5"
       gradientUnits="userSpaceOnUse"
       gradientTransform="matrix(0,-0.39447799,-0.42344634,0,14.496307,18.346218)" />
    <linearGradient
       id="linearGradient4087-5">
      <stop
         id="stop4089-8"
         style="stop-color:#ffffff;stop-opacity:1"
         offset="0" />
      <stop
         id="stop4091-2"
         style="stop-color:#ffffff;stop-opacity:0.23529412"
         offset="0.51153916" />
      <stop
         id="stop4093-6"
         style="stop-color:#ffffff;stop-opacity:0.15686275"
         offset="0.58522105" />
      <stop
         id="stop4095-0"
         style="stop-color:#ffffff;stop-opacity:0.39215687"
         offset="1" />
    </linearGradient>
    <linearGradient
       x1="23.731871"
       y1="4.4175272"
       x2="23.731871"
       y2="47.096279"
       id="linearGradient3838"
       xlink:href="#linearGradient4330"
       gradientUnits="userSpaceOnUse"
       gradientTransform="matrix(-0.36132509,0,0,0.33660657,15.140478,0.1354293)" />
    <linearGradient
       id="linearGradient4330">
      <stop
         id="stop4332"
         style="stop-color:#f0c1ff;stop-opacity:1"
         offset="0" />
      <stop
         id="stop4334"
         style="stop-color:#c5a3f2;stop-opacity:1"
         offset="0.26238" />
      <stop
         id="stop4336"
         style="stop-color:#7a36b1;stop-opacity:1"
         offset="0.704952" />
      <stop
         id="stop4338"
         style="stop-color:#4c2d81;stop-opacity:1"
         offset="1" />
    </linearGradient>
    <linearGradient
       id="linearGradient4526"
       osb:paint="solid">
      <stop
         style="stop-color:#ffffff;stop-opacity:1;"
         offset="0"
         id="stop4528" />
    </linearGradient>
    <linearGradient
       x1="23.731871"
       y1="4.4175272"
       x2="23.731871"
       y2="42.03978"
       id="linearGradient3142"
       xlink:href="#linearGradient2867-449-88-871-390-598-476-591-434-148-57-177"
       gradientUnits="userSpaceOnUse"
       gradientTransform="matrix(-0.36132509,0,0,0.33660656,19.140478,0.13542904)" />
    <linearGradient
       id="linearGradient2867-449-88-871-390-598-476-591-434-148-57-177">
      <stop
         id="stop3750"
         style="stop-color:#90dbec;stop-opacity:1"
         offset="0" />
      <stop
         id="stop3752"
         style="stop-color:#55c1ec;stop-opacity:1"
         offset="0.26238" />
      <stop
         id="stop3754"
         style="stop-color:#3689e6;stop-opacity:1"
         offset="0.704952" />
      <stop
         id="stop3756"
         style="stop-color:#2b63a0;stop-opacity:1"
         offset="1" />
    </linearGradient>
    <linearGradient
       x1="38.940514"
       y1="15.991243"
       x2="20.576487"
       y2="15.991243"
       id="linearGradient3146"
       xlink:href="#linearGradient4087-5"
       gradientUnits="userSpaceOnUse"
       gradientTransform="matrix(0,-0.39447799,-0.42344634,0,18.496308,18.346219)" />
  </defs>
  <metadata
     id="metadata3847">
    <rdf:RDF>
      <cc:Work
         rdf:about="">
        <dc:format>image/svg+xml</dc:format>
        <dc:type
           rdf:resource="http://purl.org/dc/dcmitype/StillImage" />
        <dc:title />
      </cc:Work>
    </rdf:RDF>
  </metadata>
  <path
     style="display:block;overflow:visible;visibility:visible;fill:url(#linearGradient3838);fill-opacity:1;fill-rule:nonzero;stroke:none;stroke-width:0.96392483;stroke-linecap:butt;stroke-linejoin:round;stroke-miterlimit:7;stroke-dasharray:none;stroke-dashoffset:0;stroke-opacity:1;marker:none"
     id="path3503-1"
     d="M 9.609066,13.158733 C 13.360687,9.8888911 12.166667,4.5555577 6.5000001,4.4127097 l 0,-2.7623493 -6.1393131,4.6031707 6.1393131,4.6031699 0,-2.7401299 C 9.798204,7.9885457 11.506338,10.99578 9.148455,13.158733 Z" />
  <path
     style="display:block;overflow:visible;visibility:visible;opacity:0.52999998;fill:none;stroke:url(#linearGradient3842);stroke-width:0.96392483;stroke-linecap:butt;stroke-linejoin:miter;stroke-miterlimit:7;stroke-dasharray:none;stroke-dashoffset:0;stroke-opacity:1;marker:none"
     id="path3505-3"
     d="M 10.490365,11.55524 C 12.108815,9.6597811 10.899303,4.9810147 5.5283734,5.3482481 L 5.4716267,3.645395 1.9030546,6.2535311 l 3.5685721,2.6373086 0,-1.6856033 C 10.611167,6.7086084 10.973845,10.789004 10.490365,11.55524 Z" />
  <path
     style="color:#000000;clip-rule:nonzero;display:inline;overflow:visible;visibility:visible;opacity:0.5;isolation:auto;mix-blend-mode:normal;color-interpolation:sRGB;color-interpolation-filters:linearRGB;solid-color:#000000;solid-opacity:1;fill:none;fill-opacity:1;fill-rule:nonzero;stroke:#6326b9;stroke-width:1;stroke-linecap:butt;stroke-linejoin:round;stroke-miterlimit:4;stroke-dasharray:none;stroke-dashoffset:0;stroke-opacity:1;marker:none;color-rendering:auto;image-rendering:auto;shape-rendering:auto;text-rendering:auto;enable-background:accumulate"
     id="path3503-1-0"
     d="M 9.609066,13.158733 C 13.360687,9.888891 12.166667,4.5555576 6.5000001,4.4127096 l 0,-2.7623493 -6.1393131,4.6031707 6.1393131,4.60317 0,-2.74013 C 9.798204,7.9885456 11.506338,10.99578 9.148455,13.158733 Z" />
  <path
     d="M 13.609066,13.158733 C 17.360687,9.888891 16.166666,4.5555579 10.5,4.4127095 L 10.5,1.6503604 4.360687,6.2535307 10.5,10.856701 l 0,-2.74013 c 3.298203,-0.1280253 5.006338,2.879209 2.648455,5.042162 z"
     id="path3503"
     style="display:block;overflow:visible;visibility:visible;fill:url(#linearGradient3142);fill-opacity:1;fill-rule:nonzero;stroke:none;stroke-width:0.96392483;stroke-linecap:butt;stroke-linejoin:round;stroke-miterlimit:7;stroke-dasharray:none;stroke-dashoffset:0;stroke-opacity:1;marker:none" />
  <path
     d="M 14.490365,11.55524 C 16.108815,9.659781 14.999303,5.0591753 9.6283734,5.4264083 l -0.056747,-1.868128 -3.5814574,2.6952504 3.5814574,2.7824996 0,-1.8188553 c 5.1395396,-0.4966278 5.4022186,3.571829 4.9187386,4.338065 z"
     id="path3505"
     style="display:block;overflow:visible;visibility:visible;opacity:0.52999998;fill:none;stroke:url(#linearGradient3146);stroke-width:0.96392483;stroke-linecap:butt;stroke-linejoin:miter;stroke-miterlimit:7;stroke-dasharray:none;stroke-dashoffset:0;stroke-opacity:1;marker:none" />
  <path
     d="M 13.609066,13.158733 C 17.360687,9.8888906 16.166666,4.5555575 10.5,4.4127091 L 10.5,1.65036 4.360687,6.2535303 10.5,10.856701 l 0,-2.7401304 c 3.298203,-0.1280253 5.006338,2.8792094 2.648455,5.0421624 z"
     id="path3503-4"
     style="display:inline;overflow:visible;visibility:visible;fill:none;fill-opacity:1;fill-rule:nonzero;stroke:#005485;stroke-width:0.99999988;stroke-linecap:round;stroke-linejoin:round;stroke-miterlimit:4;stroke-dasharray:none;stroke-dashoffset:0;stroke-opacity:1;marker:none;color:#000000;clip-rule:nonzero;opacity:0.5;isolation:auto;mix-blend-mode:normal;color-interpolation:sRGB;color-interpolation-filters:linearRGB;solid-color:#000000;solid-opacity:1;filter-blend-mode:normal;filter-gaussianBlur-deviation:0;color-rendering:auto;image-rendering:auto;shape-rendering:auto;text-rendering:auto;enable-background:accumulate" />
</svg>

<svg xmlns="http://www.w3.org/2000/svg" xmlns:xlink="http://www.w3.org/1999/xlink" viewBox="0 0 16 16"><defs><linearGradient x1="38.941" y1="15.991" x2="20.576" y2="15.991" id="e" xlink:href="#a" gradientUnits="userSpaceOnUse" gradientTransform="matrix(0 -.39448 -.42345 0 14.496 18.346)"/><linearGradient id="a"><stop offset="0" stop-color="#fff"/><stop offset=".512" stop-color="#fff" stop-opacity=".235"/><stop offset=".585" stop-color="#fff" stop-opacity=".157"/><stop offset="1" stop-color="#fff" stop-opacity=".392"/></linearGradient><linearGradient x1="23.732" y1="4.418" x2="23.732" y2="47.096" id="d" xlink:href="#b" gradientUnits="userSpaceOnUse" gradientTransform="matrix(-.36133 0 0 .3366 15.14 .135)"/><linearGradient id="b"><stop offset="0" stop-color="#f0c1ff"/><stop offset=".262" stop-color="#c5a3f2"/><stop offset=".705" stop-color="#7a36b1"/><stop offset="1" stop-color="#4c2d81"/></linearGradient><linearGradient x1="23.732" y1="4.418" x2="23.732" y2="42.04" id="f" xlink:href="#c" gradientUnits="userSpaceOnUse" gradientTransform="matrix(-.36133 0 0 .3366 19.14 .135)"/><linearGradient id="c"><stop offset="0" stop-color="#90dbec"/><stop offset=".262" stop-color="#55c1ec"/><stop offset=".705" stop-color="#3689e6"/><stop offset="1" stop-color="#2b63a0"/></linearGradient><linearGradient x1="38.941" y1="15.991" x2="20.576" y2="15.991" id="g" xlink:href="#a" gradientUnits="userSpaceOnUse" gradientTransform="matrix(0 -.39448 -.42345 0 18.496 18.346)"/></defs><path d="M9.61 13.16c3.75-3.27 2.557-8.604-3.11-8.747V1.65L.36 6.254l6.14 4.603v-2.74c3.298-.128 5.006 2.88 2.648 5.042z" display="block" overflow="visible" fill="url(#d)"/><path d="M10.49 11.555c1.62-1.895.41-6.574-4.962-6.207l-.056-1.703-3.57 2.61 3.57 2.636V7.207c5.14-.496 5.502 3.584 5.018 4.35z" display="block" overflow="visible" opacity=".53" fill="none" stroke="url(#e)" stroke-width=".964" stroke-miterlimit="7"/><path style="isolation:auto;mix-blend-mode:normal" d="M9.61 13.16c3.75-3.27 2.557-8.604-3.11-8.747V1.65L.36 6.254l6.14 4.603v-2.74c3.298-.128 5.006 2.88 2.648 5.042z" color="#000" overflow="visible" opacity=".5" fill="none" stroke="#6326b9" stroke-linejoin="round"/><path d="M13.61 13.16c3.75-3.27 2.557-8.604-3.11-8.747V1.65L4.36 6.254l6.14 4.603v-2.74c3.298-.128 5.006 2.88 2.648 5.042z" display="block" overflow="visible" fill="url(#f)"/><path d="M14.49 11.555c1.62-1.895.51-6.496-4.862-6.13L9.572 3.56 5.99 6.254l3.582 2.782v-1.82c5.14-.495 5.402 3.573 4.918 4.34z" display="block" overflow="visible" opacity=".53" fill="none" stroke="url(#g)" stroke-width=".964" stroke-miterlimit="7"/><path d="M13.61 13.16c3.75-3.27 2.557-8.604-3.11-8.747V1.65L4.36 6.254l6.14 4.603v-2.74c3.298-.128 5.006 2.88 2.648 5.042z" style="isolation:auto;mix-blend-mode:normal;filter-blend-mode:normal;filter-gaussianBlur-deviation:0" overflow="visible" fill="none" stroke="#005485" stroke-linecap="round" stroke-linejoin="round" color="#000" opacity=".5"/></svg>
